icons/animal_cow.svg

<svg width="48" height="48" viewBox="0 0 48 48" fill="none" xmlns="http://www.w3.org/2000/svg">
<path d="M31.3362 28.1269C31.3553 28.1384 31.3517 28.134 31.3294 28.1227L31.3362 28.1269Z" fill="black"/>
<path fill-rule="evenodd" clip-rule="evenodd" d="M19.466 12.8761C20.1009 12.3161 20.6229 11.5595 20.8031 10.8375C20.9053 10.4284 20.9524 9.77949 20.5 9.25516C20.0367 8.71817 19.3523 8.65892 18.8127 8.7273C18.3875 8.78118 18.0833 8.79189 17.8115 8.80131L17.7685 8.80278C17.4586 8.81325 17.0889 8.82575 16.6807 8.95823C16.2561 9.09598 15.8537 9.33874 15.3731 9.69267C15.0498 9.93076 14.751 10.1869 14.486 10.4517C12.8574 9.2929 10.7604 8.83945 7.46885 9.00044C6.65472 9.01693 5.99981 9.68205 5.99981 10.5001C5.99981 11.3286 6.67138 12.0001 7.49981 12.0001H8.93671C9.02319 12.0587 9.10484 12.1157 9.18219 12.1713L6.9112 15.0101C5.04532 15.1606 3.74623 16.9948 4.27718 18.8327L4.56607 19.8327C4.93692 21.1164 6.11204 22.0001 7.44822 22.0001H10.5701C10.7876 22.0001 10.9992 22.071 11.1728 22.2021L13.1159 23.6696C13.2856 23.7978 13.4638 23.9053 13.6479 23.9926C14.8046 27.1221 16.0505 29.7887 17.4601 31.5651L17.7809 35.4146C17.3059 35.7801 16.9998 36.354 16.9998 37.0002C16.9998 38.1047 17.8953 39.0002 18.9998 39.0002H21.9998C22.5521 39.0002 22.9998 38.5524 22.9998 38.0002V30.0002H26.1199C26.132 30.0499 26.145 30.0993 26.1589 30.1485C25.7118 30.3869 25.5089 30.9299 25.7049 31.409C25.914 31.9202 26.4979 32.1651 27.0091 31.9559L27.1204 31.9104C27.4665 32.3126 27.8823 32.6702 28.3532 32.9709L28.3496 32.9776C28.0882 33.464 28.2706 34.0703 28.757 34.3318C29.2435 34.5933 29.8498 34.4109 30.1113 33.9244L30.1944 33.7698C30.7642 33.9194 31.3707 34.0001 31.9999 34.0001C32.0728 34.0001 32.1454 33.999 32.2178 33.9969L32.2439 34.132C32.3488 34.6742 32.8734 35.0287 33.4156 34.9239C33.9578 34.819 34.3124 34.2944 34.2075 33.7521L34.1891 33.6568C34.6891 33.4935 35.1565 33.2757 35.5807 33.0124L35.7809 35.4146C35.3058 35.7801 34.9998 36.3539 34.9998 37.0001C34.9998 38.1047 35.8952 39.0001 36.9998 39.0001H39.9998C40.5521 39.0001 40.9998 38.5524 40.9998 38.0001V21.0001C40.9998 18.3724 40.3768 16.4617 39.3279 15.1542C40.1734 15.3171 40.7293 15.5994 41.1001 15.9556C41.6573 16.491 41.9999 17.3923 41.9999 19.0001L42.387 24.4196C42.1515 24.7855 41.9999 25.3574 41.9999 26.0001C41.9999 27.1047 42.4476 28.0001 42.9999 28.0001C43.5522 28.0001 43.9999 27.1047 43.9999 26.0001C43.9999 25.3574 43.8483 24.7855 43.6128 24.4196L43.9999 19.0001C43.9999 17.1658 43.6171 15.6004 42.4857 14.5134C41.369 13.4404 39.7299 13.0359 37.7132 13.0019C37.6712 13.0012 36.1031 13.0007 34.6976 13.0004L34.6347 13.0001L21.4998 13.0001C20.7492 13.0001 20.0769 12.9545 19.466 12.8761ZM37.5284 16.1343C36.7503 15.3329 35.7268 15.015 34.7077 15.0007L21.4998 15.0001C19.2107 15.0001 17.5296 14.6169 16.1261 14.1383C15.7007 13.9932 15.4244 13.5822 15.4506 13.1335C15.4768 12.6848 15.7991 12.3087 16.2385 12.2142C16.9207 12.0674 17.568 11.8127 17.9633 11.5216C18.1933 11.3522 18.4064 11.1337 18.5726 10.9061C18.6111 10.8535 18.6454 10.8025 18.6759 10.7539C18.3497 10.7839 18.0916 10.7928 17.8838 10.8L17.8808 10.8001C17.5205 10.8126 17.4158 10.8223 17.2979 10.8606C17.1773 10.8997 16.9791 10.9938 16.5591 11.3031C16.0468 11.6804 15.6634 12.0815 15.4388 12.4117C15.2739 12.6541 15.0109 12.8119 14.7195 12.8434C14.4281 12.875 14.1375 12.777 13.9246 12.5755C13.2337 11.9217 12.4126 11.4366 11.1444 11.1787C11.1831 11.2129 11.2211 11.247 11.2584 11.281C11.6476 11.6363 11.6943 12.2327 11.3651 12.6443L8.18066 16.6248C7.99089 16.862 7.70357 17.0001 7.39979 17.0001H7.15933C6.49373 17.0001 6.01388 17.6382 6.19861 18.2776L6.4875 19.2776C6.61112 19.7055 7.00282 20.0001 7.44822 20.0001H10.5701C11.2227 20.0001 11.8574 20.2129 12.3781 20.6061L14.3212 22.0736C14.4386 22.1623 14.5593 22.2177 14.6777 22.2481C14.9978 22.3303 15.2566 22.5654 15.3691 22.8761C16.617 26.3216 17.8799 28.9697 19.195 30.5275C19.3289 30.6862 19.4102 30.8826 19.4274 31.0895L19.8308 35.9307C19.874 36.449 19.5127 36.9138 19 37L20.9998 37.0002V29.0002C20.9998 28.4479 21.4475 28.0002 21.9998 28.0002H28.2306L28.1404 27.9096C27.0107 26.7733 25.6972 25.3375 25.1716 24.5604L26.8282 23.4398C27.2351 24.0414 28.4215 25.3556 29.5588 26.4996C30.118 27.0622 30.6334 27.5513 30.9986 27.8628C31.1808 28.0181 31.2877 28.0963 31.3294 28.1227C31.3013 28.1085 31.2435 28.0833 31.1645 28.0648C31.2918 28.113 31.4091 28.1871 31.5084 28.2838C32.8876 29.6273 34.3703 30.6282 36.6656 31.014C37.1164 31.0897 37.4584 31.4615 37.4964 31.9171L37.8308 35.9307C37.874 36.449 37.5127 36.9138 37 36.9999L38.9998 37.0001V21.0001C38.9998 18.4195 38.3243 16.9539 37.5284 16.1343ZM31.9999 32.0001C30.0566 32.0001 28.7626 31.0428 28.2489 30.0002H30.4106C31.1903 30.7256 32.04 31.3785 33.0402 31.9016C32.7177 31.9653 32.3706 32.0001 31.9999 32.0001Z" fill="black"/>
</svg>

<svg
  xmlns="http://www.w3.org/2000/svg"
  width="24"
  height="24"
  viewBox="0 0 24 24"
  fill="none"
  stroke="currentColor"
  stroke-width="2"
  stroke-linecap="round"
  stroke-linejoin="round"
>
  <path d="m31.336 28.127-.007-.004z" />
  <path
    fill-rule="evenodd"
    d="M19.466 12.876c.635-.56 1.157-1.316 1.337-2.038.102-.41.15-1.059-.303-1.583-.463-.537-1.148-.596-1.687-.528-.425.054-.73.065-1.001.074l-.044.002c-.31.01-.68.023-1.087.155-.425.138-.827.38-1.308.735a8 8 0 0 0-.887.759C12.857 9.292 10.76 8.839 7.469 9a1.5 1.5 0 0 0 .03 3h1.438q.13.088.245.171l-2.27 2.84a3 3 0 0 0-2.635 3.822l.29 1A3 3 0 0 0 7.447 22h3.122a1 1 0 0 1 .603.202l1.943 1.468q.256.191.532.323c1.157 3.13 2.403 5.796 3.812 7.572l.32 3.85A2 2 0 0 0 19 39h3a1 1 0 0 0 1-1v-8h3.12l.04.147a1 1 0 0 0 .85 1.808l.111-.046c.346.403.762.76 1.233 1.06l-.003.008a1 1 0 0 0 1.761.946l.083-.154a7.1 7.1 0 0 0 2.024.227l.026.135a1 1 0 0 0 1.964-.38l-.019-.095c.5-.163.968-.381 1.392-.645l.2 2.403A2 2 0 0 0 37 39h3a1 1 0 0 0 1-1V21c0-2.629-.623-4.54-1.672-5.847.845.163 1.401.445 1.772.802.557.535.9 1.436.9 3.044l.387 5.42c-.236.365-.387.937-.387 1.58 0 1.105.448 2 1 2s1-.895 1-2c0-.643-.152-1.215-.387-1.58L44 19c0-1.834-.383-3.4-1.514-4.487-1.117-1.073-2.756-1.477-4.773-1.511L34.698 13H21.5c-.75 0-1.423-.046-2.034-.124m18.062 3.258c-.778-.801-1.801-1.119-2.82-1.133H21.5c-2.29 0-3.97-.384-5.374-.863a1 1 0 0 1 .112-1.924c.683-.147 1.33-.401 1.725-.692a2.9 2.9 0 0 0 .713-.768c-.326.03-.584.039-.792.046h-.003c-.36.013-.465.022-.583.06-.12.04-.319.134-.739.443-.512.377-.896.778-1.12 1.109a1 1 0 0 1-1.514.163c-.691-.653-1.512-1.138-2.78-1.396l.113.102a1 1 0 0 1 .107 1.363l-3.184 3.98A1 1 0 0 1 7.4 17h-.24a1 1 0 0 0-.961 1.278l.289 1a1 1 0 0 0 .96.722h3.122a3 3 0 0 1 1.808.606l1.943 1.468q.178.13.357.174a1 1 0 0 1 .691.628c1.248 3.446 2.51 6.094 3.826 7.651a1 1 0 0 1 .232.563l.404 4.84A1 1 0 0 1 19 37h2v-8a1 1 0 0 1 1-1h6.23l-.09-.09c-1.13-1.137-2.443-2.573-2.968-3.35l1.656-1.12c.407.601 1.594 1.916 2.73 3.06a26 26 0 0 0 1.44 1.363c.183.155.29.233.331.26a.8.8 0 0 0-.165-.058 1 1 0 0 1 .344.219c1.38 1.343 2.862 2.344 5.158 2.73a1 1 0 0 1 .83.903l.335 4.014A1 1 0 0 1 37 37h2V21c0-2.58-.676-4.046-1.472-4.866M32 32c-1.943 0-3.237-.957-3.751-2h2.162c.78.726 1.629 1.378 2.63 1.902q-.484.096-1.041.098"
    clip-rule="evenodd"
  />
</svg>
